X:1
T: Bundle and go
T: Larry O'Gaff 
P:Roche version
R:Jig
Q:180
K:D
M:6/8
L:1/16
|:(3ABc|d2A2F2 A2F2D2|A2B2A2 A2F2D2|G2B2G2 F2A2F2|E2F2A2 B4A2|
d2A2F2 A2F2D2|A2B2A2 A2F2D2|G2B2G2 F2A2F2|E2D2E2 D4:|
|:FE|D2F2A2 d2c2d2|e2f2e2 e2c2A2|B2e2e2 e2d2e2|f2d2d2 d4A2|
d2e2d2 d2c2B2|A2d2B2 A2F2D2|G2G2G2 F2E2F2|E2D2E2 D4:|
